X: 30754
T: MISSOURI HORNPIPE
C:
%R: hornpipe, reel
B: Elias Howe "The Musician's Companion" Part 3 1844 p.75 #4
S: http://imslp.org/wiki/The_Musician's_Companion_(Howe,_Elias)
Z: 2015 John Chambers <jc:trillian.mit.edu>
N: Added "pickup" rest to 2nd strain, to fix the rhythm.
M: 2/4
L: 1/16
K: D
% - - - - - - - - - - - - - - - - - - - - - - - - -
FE |\
DFAd fafd | cAec dAFA | DFAF EGBG | FAdF GFEF |\
DFAd fafd | cAec dAFd | BABG GAdA | GBAF D2 :|
|: z2 |\
AceA gece | Adfd afdf | dcdA fefd | Adgf f2e2 |\
DFAd fdAF | EGBe gece | dcdB BABG | FdEc d2 :|
% - - - - - - - - - - - - - - - - - - - - - - - - -
